www/assets/icons/discount.svg

<svg width="24" height="24" viewBox="0 0 24 24" xmlns="http://www.w3.org/2000/svg" fill='currentColor'><path d="M12.7876 21.5024L2.99756 11.7124V13.7124C2.99756 14.2424 3.20756 14.7524 3.58756 15.1224L11.3776 22.9124C12.1576 23.6924 13.4276 23.6924 14.2076 22.9124L20.4176 16.7024C21.1976 15.9224 21.1976 14.6524 20.4176 13.8724L12.7876 21.5024Z"/><path d="M11.3776 17.9124C12.1576 18.6924 13.4276 18.6924 14.2076 17.9124L20.4176 11.7024C21.1976 10.9224 21.1976 9.65244 20.4176 8.87244L12.6276 1.08244C12.2476 0.712441 11.7376 0.502441 11.2076 0.502441H4.99756C3.89756 0.502441 2.99756 1.40244 2.99756 2.50244V8.71244C2.99756 9.24244 3.20756 9.75244 3.58756 10.1224L11.3776 17.9124ZM7.24756 3.50244C7.93756 3.50244 8.49756 4.06244 8.49756 4.75244C8.49756 5.44244 7.93756 6.00244 7.24756 6.00244C6.55756 6.00244 5.99756 5.44244 5.99756 4.75244C5.99756 4.06244 6.55756 3.50244 7.24756 3.50244Z"/></svg>

<svg xmlns="http://www.w3.org/2000/svg" width="24" height="24" viewBox="0 0 24 24" fill='currentColor'><path d="m12.788 21.502-9.79-9.79v2c0 .53.21 1.04.59 1.41l7.79 7.79c.78.78 2.05.78 2.83 0l6.21-6.21c.78-.78.78-2.05 0-2.83z"/><path d="M11.378 17.912c.78.78 2.05.78 2.83 0l6.21-6.21c.78-.78.78-2.05 0-2.83l-7.79-7.79a2.04 2.04 0 0 0-1.42-.58h-6.21c-1.1 0-2 .9-2 2v6.21c0 .53.21 1.04.59 1.41zm-4.13-14.41a1.25 1.25 0 1 1-.001 2.501 1.25 1.25 0 0 1 0-2.5"/></svg>
